app/dist/common/images/envela.svg

<svg height="18" viewBox="0 0 18 18" width="18" xmlns="http://www.w3.org/2000/svg"><path d="m0 0h18v18h-18z" fill="#f0f3fa"/><path d="m4 4.74c0-.41.33-.74.74-.74h8.52c.41 0 .74.33.74.74v1.26h-6.19c-1.05 0-1.81 1-1.81 2h1c0-.49.36-1 .85-1h6.15v6.26c0 .41-.33.74-.74.74h-8.52a.74.74 0 0 1 -.74-.74v-3.76h6.75c.14 0 .25-.1.25-.24v-.52a.25.25 0 0 0 -.25-.24h-6.75zm3 5.37h-1c0 1.01.74 1.89 1.81 1.89h2.02c.1 0 .17-.08.17-.17v-.66c0-.1-.08-.17-.17-.17h-1.87c-.51 0-.96-.4-.96-.9z" fill="#00b0ae"/></svg>

<!-- by TradingView --><svg width="18" height="18" viewBox="0 0 18 18" xmlns="http://www.w3.org/2000/svg"><path fill="#F0F3FA" d="M0 0h18v18H0z"/><path d="M4 4.74c0-.41.33-.74.74-.74h8.52c.41 0 .74.33.74.74V6H7.81C6.76 6 6 7 6 8h1c0-.49.36-1 .85-1H14v6.26c0 .41-.33.74-.74.74H4.74a.74.74 0 0 1-.74-.74V9.5h6.75c.14 0 .25-.1.25-.24v-.52a.25.25 0 0 0-.25-.24H4V4.74Zm3 5.37H6C6 11.12 6.74 12 7.81 12h2.02c.1 0 .17-.08.17-.17v-.66c0-.1-.08-.17-.17-.17H7.96c-.51 0-.96-.4-.96-.9Z" fill="#00B0AE"/></svg>
